packages/internal_wiki/src/data/svgs/DE405.svg

<svg xmlns="http://www.w3.org/2000/svg" viewBox="0 0 200 120" role="img" aria-labelledby="title">
  <title id="title">Verkehrszeichen 405[…] - Autobahnen</title>
  <rect width="199.5" height="119.5" x=".25" y=".25" rx="10" ry="10" style="fill:#fff;fill-rule:evenodd;stroke:#000;stroke-width:.5"/>
  <path d="M7 60V22q0-2 3-3L98 5.1q0-.1 2-.1t2 .1L190 19q3 1 3 3v76q0 2-3 3l-88 13.9q0 .1-2 .1t-2-.1L10 101q-3-1-3-3" style="fill:#003abd;fill-rule:evenodd;stroke:none"/>
  <path d="m70.93 58.08-18.1 36.2h-10.8l14.22-28.49h-.19q-2.3.87-5.12.87-6.47 0-11.27-4.47-4.85-4.44-4.85-14.32 0-11.59 6.15-16.58 6.18-5.03 13.76-5.03 7.01 0 12.92 5.54 5.87 5.54 5.87 15.06 0 6.14-2.59 11.22m-16.76 0q4.02 0 6.84-2.68 2.81-2.59 2.81-8.36 0-11.13-9.65-11.13-3.37 0-6.51 2.54-3.19 2.59-3.19 8.59 0 5.73 2.82 8.36 2.77 2.68 6.88 2.68m62.73 0-18.12 36.2H87.97l14.23-28.49h-.2q-2.3.87-5.12.87-6.46 0-11.26-4.47-4.85-4.44-4.85-14.32 0-11.59 6.14-16.58 6.19-5.03 13.79-5.03 7 0 12.9 5.54t5.9 15.06q0 6.14-2.6 11.22m-16.8 0q4 0 6.8-2.68 2.9-2.59 2.9-8.36 0-11.13-9.7-11.13-3.36 0-6.5 2.54-3.18 2.59-3.18 8.59 0 5.73 2.82 8.36 2.77 2.68 6.86 2.68m62.7 0-18.1 36.2h-10.8l14.2-28.49h-.1q-2.4.87-5.2.87-6.4 0-11.2-4.47-4.9-4.44-4.9-14.32 0-11.59 6.2-16.58 6.1-5.03 13.7-5.03 7 0 12.9 5.54t5.9 15.06q0 6.14-2.6 11.22m-16.7 0q4 0 6.8-2.68 2.8-2.59 2.8-8.36 0-11.13-9.6-11.13-3.4 0-6.6 2.54-3.1 2.59-3.1 8.59 0 5.73 2.8 8.36 2.8 2.68 6.9 2.68" style="fill:#fff;fill-rule:evenodd;stroke:none"/>
</svg>

<?xml version="1.0" encoding="UTF-8" standalone="no"?>
<!DOCTYPE svg PUBLIC "-//W3C//DTD SVG 1.1//EN" "http://www.w3.org/Graphics/SVG/1.1/DTD/svg11.dtd">
<svg xmlns:svg="http://www.w3.org/2000/svg" xmlns="http://www.w3.org/2000/svg" version="1.1"
	width="400px" height="240px" viewBox="0 0 200 120">
	<defs />
	<rect id="border"    style="fill :#FFFFFF; fill-rule :evenodd; stroke :#000000; stroke-width :0.50;" x="0.25" y="0.25" rx="10" ry="10" width="199.5" height="119.5" />
    <path id="blueback"  style="fill :#003ABD; fill-rule :evenodd; stroke :none;" d="M 7,60 7,22 Q 7,20 10,19 L 98,5.1 Q 98,5 100,5 102,5 102,5.1 L 190,19 Q 193,20 193,22 L 193,98 Q 193,100 190,101 L 102,114.9 Q 102,115 100,115 98,115 98,114.9 L 10,101 Q 7,100 7,98" />
    <path id="number999" style="fill :#FFFFFF; fill-rule :evenodd; stroke :none;" d="M 70.93,58.08 52.83,94.28 H 42.03 L 56.25,65.79 H 56.06 Q 53.76,66.66 50.94,66.66 44.47,66.66 39.67,62.19 34.82,57.75 34.82,47.87 34.82,36.28 40.97,31.29 47.15,26.26 54.73,26.26 61.74,26.26 67.65,31.8 73.52,37.34 73.52,46.86 73.52,53 70.93,58.08 z M 54.17,58.08 Q 58.19,58.08 61.01,55.4 63.82,52.81 63.82,47.04 63.82,35.91 54.17,35.91 50.8,35.91 47.66,38.45 44.47,41.04 44.47,47.04 44.47,52.77 47.29,55.4 50.06,58.08 54.17,58.08 z M 116.9,58.08 98.78,94.28 H 87.97 L 102.2,65.79 H 102 Q 99.7,66.66 96.88,66.66 90.42,66.66 85.62,62.19 80.77,57.75 80.77,47.87 80.77,36.28 86.91,31.29 93.1,26.26 100.7,26.26 107.7,26.26 113.6,31.8 119.5,37.34 119.5,46.86 119.5,53 116.9,58.08 z M 100.1,58.08 Q 104.1,58.08 106.9,55.4 109.8,52.81 109.8,47.04 109.8,35.91 100.1,35.91 96.74,35.91 93.6,38.45 90.42,41.04 90.42,47.04 90.42,52.77 93.24,55.4 96.01,58.08 100.1,58.08 z M 162.8,58.08 144.7,94.28 H 133.9 L 148.1,65.79 H 148 Q 145.6,66.66 142.8,66.66 136.4,66.66 131.6,62.19 126.7,57.75 126.7,47.87 126.7,36.28 132.9,31.29 139,26.26 146.6,26.26 153.6,26.26 159.5,31.8 165.4,37.34 165.4,46.86 165.4,53 162.8,58.08 z M 146.1,58.08 Q 150.1,58.08 152.9,55.4 155.7,52.81 155.7,47.04 155.7,35.91 146.1,35.91 142.7,35.91 139.5,38.45 136.4,41.04 136.4,47.04 136.4,52.77 139.2,55.4 142,58.08 146.1,58.08 z" />
</svg>
